src/assets/clubs_9.svg

<?xml version="1.0" encoding="UTF-8"?>
<svg xmlns="http://www.w3.org/2000/svg" xmlns:xlink="http://www.w3.org/1999/xlink" width="99px" height="140px" viewBox="0 0 99 140" version="1.1">
<g id="surface1">
<path style="fill-rule:nonzero;fill:rgb(100%,100%,100%);fill-opacity:1;stroke-width:0.756;stroke-linecap:butt;stroke-linejoin:miter;stroke:rgb(50.196078%,50.196078%,50.196078%);stroke-opacity:1;stroke-miterlimit:4;" d="M 9.297538 719.743173 L 224.702368 719.743173 C 229.632765 719.743173 233.621402 723.747721 233.621402 728.681399 L 233.621402 1043.043061 C 233.621402 1047.976739 229.632765 1051.981287 224.702368 1051.981287 L 9.297538 1051.981287 C 4.36714 1051.981287 0.378504 1047.976739 0.378504 1043.043061 L 0.378504 728.681399 C 0.378504 723.747721 4.36714 719.743173 9.297538 719.743173 Z M 9.297538 719.743173 " transform="matrix(0.423077,0,0,0.42042,0.0000199847,-302.434571)"/>
<path style=" stroke:none;fill-rule:nonzero;fill:rgb(0%,0%,0%);fill-opacity:1;" d="M 23.785156 60.835938 L 25.820312 60.835938 L 25.820312 67.882812 L 23.785156 67.882812 Z M 23.785156 60.835938 "/>
<path style=" stroke:none;fill-rule:nonzero;fill:rgb(0%,0%,0%);fill-opacity:1;" d="M 36 57.46875 C 37.605469 60.347656 36.5625 63.976562 33.675781 65.574219 C 30.789062 67.171875 27.148438 66.136719 25.542969 63.257812 C 25.117188 62.492188 24.863281 61.640625 24.804688 60.765625 C 24.582031 64.054688 21.726562 66.535156 18.429688 66.3125 C 15.136719 66.089844 12.644531 63.242188 12.871094 59.957031 C 13.09375 56.671875 15.949219 54.191406 19.242188 54.414062 C 20.109375 54.472656 20.949219 54.71875 21.722656 55.136719 C 18.898438 53.445312 17.972656 49.785156 19.667969 46.960938 C 21.363281 44.132812 25.035156 43.210938 27.871094 44.902344 C 30.707031 46.589844 31.632812 50.25 29.9375 53.078125 C 29.425781 53.929688 28.710938 54.636719 27.863281 55.148438 C 30.753906 53.550781 34.394531 54.589844 36 57.46875 Z M 36 57.46875 "/>
<path style=" stroke:none;fill-rule:nonzero;fill:rgb(0%,0%,0%);fill-opacity:1;" d="M 6.9375 23.441406 L 7.617188 23.441406 L 7.617188 25.789062 L 6.9375 25.789062 Z M 6.9375 23.441406 "/>
<path style=" stroke:none;fill-rule:nonzero;fill:rgb(0%,0%,0%);fill-opacity:1;" d="M 11.011719 22.316406 C 11.546875 23.277344 11.199219 24.488281 10.238281 25.019531 C 9.273438 25.550781 8.058594 25.207031 7.523438 24.246094 C 7.382812 23.992188 7.296875 23.707031 7.277344 23.417969 C 7.203125 24.511719 6.253906 25.339844 5.15625 25.265625 C 4.054688 25.191406 3.226562 24.242188 3.300781 23.148438 C 3.375 22.050781 4.328125 21.226562 5.425781 21.300781 C 5.714844 21.320312 5.996094 21.402344 6.25 21.539062 C 5.308594 20.976562 5.003906 19.757812 5.566406 18.8125 C 6.132812 17.871094 7.355469 17.566406 8.300781 18.128906 C 9.246094 18.691406 9.554688 19.910156 8.988281 20.855469 C 8.820312 21.136719 8.582031 21.375 8.296875 21.542969 C 9.261719 21.011719 10.476562 21.359375 11.011719 22.316406 Z M 11.011719 22.316406 "/>
<path style=" stroke:none;fill-rule:nonzero;fill:rgb(0%,0%,0%);fill-opacity:1;" d="M 91.378906 116.558594 L 92.058594 116.558594 L 92.058594 114.210938 L 91.378906 114.210938 Z M 91.378906 116.558594 "/>
<path style=" stroke:none;fill-rule:nonzero;fill:rgb(0%,0%,0%);fill-opacity:1;" d="M 95.453125 117.683594 C 95.988281 116.722656 95.640625 115.511719 94.679688 114.980469 C 93.714844 114.449219 92.5 114.792969 91.964844 115.753906 C 91.824219 116.007812 91.738281 116.292969 91.71875 116.582031 C 91.644531 115.488281 90.695312 114.660156 89.597656 114.734375 C 88.496094 114.808594 87.667969 115.757812 87.742188 116.851562 C 87.816406 117.949219 88.769531 118.773438 89.867188 118.699219 C 90.15625 118.679688 90.4375 118.597656 90.691406 118.460938 C 89.75 119.023438 89.445312 120.242188 90.007812 121.1875 C 90.574219 122.128906 91.796875 122.433594 92.742188 121.871094 C 93.6875 121.308594 93.996094 120.089844 93.429688 119.144531 C 93.261719 118.863281 93.023438 118.625 92.738281 118.457031 C 93.703125 118.988281 94.917969 118.640625 95.453125 117.683594 Z M 95.453125 117.683594 "/>
<path style=" stroke:none;fill-rule:nonzero;fill:rgb(0%,0%,0%);fill-opacity:1;" d="M 23.785156 107.226562 L 25.820312 107.226562 L 25.820312 100.179688 L 23.785156 100.179688 Z M 23.785156 107.226562 "/>
<path style=" stroke:none;fill-rule:nonzero;fill:rgb(0%,0%,0%);fill-opacity:1;" d="M 36 110.59375 C 37.605469 107.714844 36.5625 104.085938 33.675781 102.488281 C 30.789062 100.886719 27.148438 101.925781 25.542969 104.804688 C 25.117188 105.570312 24.863281 106.421875 24.804688 107.296875 C 24.582031 104.007812 21.726562 101.527344 18.429688 101.75 C 15.136719 101.972656 12.644531 104.820312 12.871094 108.101562 C 13.09375 111.386719 15.949219 113.871094 19.242188 113.648438 C 20.109375 113.589844 20.949219 113.34375 21.722656 112.925781 C 18.898438 114.617188 17.972656 118.277344 19.667969 121.101562 C 21.363281 123.929688 25.035156 124.851562 27.871094 123.160156 C 30.707031 121.472656 31.632812 117.8125 29.9375 114.984375 C 29.425781 114.132812 28.710938 113.425781 27.863281 112.914062 C 30.753906 114.511719 34.394531 113.472656 36 110.59375 Z M 36 110.59375 "/>
<path style=" stroke:none;fill-rule:nonzero;fill:rgb(0%,0%,0%);fill-opacity:1;" d="M 23.785156 32.773438 L 25.820312 32.773438 L 25.820312 39.820312 L 23.785156 39.820312 Z M 23.785156 32.773438 "/>
<path style=" stroke:none;fill-rule:nonzero;fill:rgb(0%,0%,0%);fill-opacity:1;" d="M 36 29.40625 C 37.605469 32.285156 36.5625 35.914062 33.675781 37.511719 C 30.789062 39.113281 27.148438 38.074219 25.542969 35.195312 C 25.117188 34.429688 24.863281 33.578125 24.804688 32.703125 C 24.582031 35.992188 21.726562 38.472656 18.429688 38.25 C 15.136719 38.027344 12.644531 35.179688 12.871094 31.894531 C 13.09375 28.609375 15.949219 26.128906 19.242188 26.351562 C 20.109375 26.410156 20.949219 26.65625 21.722656 27.074219 C 18.898438 25.382812 17.972656 21.722656 19.667969 18.898438 C 21.363281 16.070312 25.035156 15.148438 27.871094 16.839844 C 30.707031 18.527344 31.632812 22.1875 29.9375 25.015625 C 29.425781 25.867188 28.710938 26.574219 27.863281 27.085938 C 30.753906 25.488281 34.394531 26.527344 36 29.40625 Z M 36 29.40625 "/>
<path style=" stroke:none;fill-rule:nonzero;fill:rgb(0%,0%,0%);fill-opacity:1;" d="M 48.480469 74.867188 L 50.515625 74.867188 L 50.515625 81.914062 L 48.480469 81.914062 Z M 48.480469 74.867188 "/>
<path style=" stroke:none;fill-rule:nonzero;fill:rgb(0%,0%,0%);fill-opacity:1;" d="M 60.695312 71.5 C 62.300781 74.375 61.257812 78.007812 58.371094 79.605469 C 55.484375 81.203125 51.84375 80.167969 50.238281 77.289062 C 49.808594 76.523438 49.558594 75.671875 49.5 74.796875 C 49.277344 78.085938 46.421875 80.566406 43.125 80.34375 C 39.832031 80.121094 37.339844 77.273438 37.566406 73.988281 C 37.789062 70.703125 40.640625 68.222656 43.9375 68.445312 C 44.804688 68.503906 45.644531 68.75 46.417969 69.167969 C 43.59375 67.476562 42.667969 63.816406 44.363281 60.992188 C 46.058594 58.164062 49.730469 57.242188 52.566406 58.933594 C 55.402344 60.621094 56.328125 64.28125 54.632812 67.109375 C 54.121094 67.960938 53.40625 68.667969 52.558594 69.179688 C 55.449219 67.582031 59.089844 68.621094 60.695312 71.5 Z M 60.695312 71.5 "/>
<path style=" stroke:none;fill-rule:nonzero;fill:rgb(0%,0%,0%);fill-opacity:1;" d="M 73.175781 32.773438 L 75.210938 32.773438 L 75.210938 39.820312 L 73.175781 39.820312 Z M 73.175781 32.773438 "/>
<path style=" stroke:none;fill-rule:nonzero;fill:rgb(0%,0%,0%);fill-opacity:1;" d="M 85.390625 29.40625 C 86.996094 32.285156 85.953125 35.914062 83.066406 37.511719 C 80.179688 39.113281 76.539062 38.074219 74.933594 35.195312 C 74.503906 34.429688 74.253906 33.578125 74.195312 32.703125 C 73.972656 35.992188 71.117188 38.472656 67.820312 38.25 C 64.527344 38.027344 62.035156 35.179688 62.261719 31.894531 C 62.484375 28.609375 65.335938 26.128906 68.632812 26.351562 C 69.5 26.410156 70.339844 26.65625 71.113281 27.074219 C 68.289062 25.382812 67.363281 21.722656 69.058594 18.898438 C 70.753906 16.070312 74.425781 15.148438 77.261719 16.839844 C 80.097656 18.527344 81.023438 22.1875 79.328125 25.015625 C 78.816406 25.867188 78.101562 26.574219 77.253906 27.085938 C 80.144531 25.488281 83.785156 26.527344 85.390625 29.40625 Z M 85.390625 29.40625 "/>
<path style=" stroke:none;fill-rule:nonzero;fill:rgb(0%,0%,0%);fill-opacity:1;" d="M 73.175781 60.835938 L 75.210938 60.835938 L 75.210938 67.882812 L 73.175781 67.882812 Z M 73.175781 60.835938 "/>
<path style=" stroke:none;fill-rule:nonzero;fill:rgb(0%,0%,0%);fill-opacity:1;" d="M 85.390625 57.46875 C 86.996094 60.347656 85.953125 63.976562 83.066406 65.574219 C 80.179688 67.171875 76.539062 66.136719 74.933594 63.257812 C 74.503906 62.492188 74.253906 61.640625 74.195312 60.765625 C 73.972656 64.054688 71.117188 66.535156 67.820312 66.3125 C 64.527344 66.089844 62.035156 63.242188 62.261719 59.957031 C 62.484375 56.671875 65.335938 54.191406 68.632812 54.414062 C 69.5 54.472656 70.339844 54.71875 71.113281 55.136719 C 68.289062 53.445312 67.363281 49.785156 69.058594 46.960938 C 70.753906 44.132812 74.425781 43.210938 77.261719 44.902344 C 80.097656 46.589844 81.023438 50.25 79.328125 53.078125 C 78.816406 53.929688 78.101562 54.636719 77.253906 55.148438 C 80.144531 53.550781 83.785156 54.589844 85.390625 57.46875 Z M 85.390625 57.46875 "/>
<path style=" stroke:none;fill-rule:nonzero;fill:rgb(0%,0%,0%);fill-opacity:1;" d="M 23.785156 79.164062 L 25.820312 79.164062 L 25.820312 72.117188 L 23.785156 72.117188 Z M 23.785156 79.164062 "/>
<path style=" stroke:none;fill-rule:nonzero;fill:rgb(0%,0%,0%);fill-opacity:1;" d="M 36 82.53125 C 37.605469 79.652344 36.5625 76.023438 33.675781 74.425781 C 30.789062 72.828125 27.148438 73.863281 25.542969 76.742188 C 25.117188 77.507812 24.863281 78.359375 24.804688 79.234375 C 24.582031 75.945312 21.726562 73.464844 18.429688 73.6875 C 15.136719 73.910156 12.644531 76.757812 12.871094 80.042969 C 13.09375 83.328125 15.949219 85.808594 19.242188 85.585938 C 20.109375 85.527344 20.949219 85.28125 21.722656 84.863281 C 18.898438 86.554688 17.972656 90.214844 19.667969 93.039062 C 21.363281 95.867188 25.035156 96.789062 27.871094 95.097656 C 30.707031 93.410156 31.632812 89.75 29.9375 86.921875 C 29.425781 86.070312 28.710938 85.363281 27.863281 84.851562 C 30.753906 86.449219 34.394531 85.410156 36 82.53125 Z M 36 82.53125 "/>
<path style=" stroke:none;fill-rule:nonzero;fill:rgb(0%,0%,0%);fill-opacity:1;" d="M 73.175781 107.226562 L 75.210938 107.226562 L 75.210938 100.179688 L 73.175781 100.179688 Z M 73.175781 107.226562 "/>
<path style=" stroke:none;fill-rule:nonzero;fill:rgb(0%,0%,0%);fill-opacity:1;" d="M 85.390625 110.59375 C 86.996094 107.714844 85.953125 104.085938 83.066406 102.488281 C 80.179688 100.886719 76.539062 101.925781 74.933594 104.804688 C 74.503906 105.570312 74.253906 106.421875 74.195312 107.296875 C 73.972656 104.007812 71.117188 101.527344 67.820312 101.75 C 64.527344 101.972656 62.035156 104.820312 62.261719 108.101562 C 62.484375 111.386719 65.335938 113.871094 68.632812 113.648438 C 69.5 113.589844 70.339844 113.34375 71.113281 112.925781 C 68.289062 114.617188 67.363281 118.277344 69.058594 121.101562 C 70.753906 123.929688 74.425781 124.851562 77.261719 123.160156 C 80.097656 121.472656 81.023438 117.8125 79.328125 114.984375 C 78.816406 114.132812 78.101562 113.425781 77.253906 112.914062 C 80.144531 114.511719 83.785156 113.472656 85.390625 110.59375 Z M 85.390625 110.59375 "/>
<path style=" stroke:none;fill-rule:nonzero;fill:rgb(0%,0%,0%);fill-opacity:1;" d="M 73.175781 79.164062 L 75.210938 79.164062 L 75.210938 72.117188 L 73.175781 72.117188 Z M 73.175781 79.164062 "/>
<path style=" stroke:none;fill-rule:nonzero;fill:rgb(0%,0%,0%);fill-opacity:1;" d="M 85.390625 82.53125 C 86.996094 79.652344 85.953125 76.023438 83.066406 74.425781 C 80.179688 72.828125 76.539062 73.863281 74.933594 76.742188 C 74.503906 77.507812 74.253906 78.359375 74.195312 79.234375 C 73.972656 75.945312 71.117188 73.464844 67.820312 73.6875 C 64.527344 73.910156 62.035156 76.757812 62.261719 80.042969 C 62.484375 83.328125 65.335938 85.808594 68.632812 85.585938 C 69.5 85.527344 70.339844 85.28125 71.113281 84.863281 C 68.289062 86.554688 67.363281 90.214844 69.058594 93.039062 C 70.753906 95.867188 74.425781 96.789062 77.261719 95.097656 C 80.097656 93.410156 81.023438 89.75 79.328125 86.921875 C 78.816406 86.070312 78.101562 85.363281 77.253906 84.851562 C 80.144531 86.449219 83.785156 85.410156 85.390625 82.53125 Z M 85.390625 82.53125 "/>
<path style=" stroke:none;fill-rule:nonzero;fill:rgb(0%,0%,0%);fill-opacity:1;" d="M 11.261719 9.066406 C 11.261719 10.761719 10.964844 12.140625 10.371094 13.203125 C 9.628906 14.53125 8.484375 15.199219 6.9375 15.199219 C 6.035156 15.199219 5.289062 15.019531 4.699219 14.65625 C 3.988281 14.210938 3.632812 13.554688 3.632812 12.691406 C 3.632812 12.5 3.765625 12.40625 4.027344 12.40625 L 5.214844 12.40625 C 5.367188 12.40625 5.5 12.496094 5.605469 12.671875 C 5.765625 12.9375 5.890625 13.109375 5.976562 13.183594 C 6.195312 13.363281 6.515625 13.453125 6.9375 13.453125 C 7.648438 13.453125 8.203125 13.117188 8.597656 12.445312 C 8.910156 11.90625 9.082031 11.238281 9.121094 10.449219 C 8.496094 10.953125 7.746094 11.203125 6.875 11.203125 C 5.765625 11.203125 4.882812 10.808594 4.226562 10.019531 C 3.605469 9.277344 3.296875 8.335938 3.296875 7.191406 C 3.296875 5.988281 3.636719 5.039062 4.316406 4.339844 C 4.996094 3.636719 5.925781 3.285156 7.105469 3.285156 C 9.878906 3.285156 11.261719 5.214844 11.261719 9.066406 Z M 9.074219 7.242188 C 9.074219 6.652344 8.914062 6.148438 8.597656 5.738281 C 8.25 5.285156 7.796875 5.054688 7.234375 5.054688 C 6.65625 5.054688 6.199219 5.277344 5.855469 5.722656 C 5.546875 6.128906 5.390625 6.632812 5.390625 7.242188 C 5.390625 7.859375 5.542969 8.367188 5.847656 8.765625 C 6.179688 9.207031 6.640625 9.425781 7.234375 9.425781 C 7.824219 9.425781 8.285156 9.203125 8.613281 8.757812 C 8.917969 8.359375 9.074219 7.851562 9.074219 7.242188 Z M 9.074219 7.242188 "/>
<path style=" stroke:none;fill-rule:nonzero;fill:rgb(0%,0%,0%);fill-opacity:1;" d="M 87.738281 130.933594 C 87.738281 129.238281 88.035156 127.859375 88.628906 126.796875 C 89.371094 125.46875 90.515625 124.800781 92.0625 124.800781 C 92.964844 124.800781 93.710938 124.980469 94.300781 125.34375 C 95.011719 125.789062 95.367188 126.445312 95.367188 127.308594 C 95.367188 127.5 95.234375 127.59375 94.972656 127.59375 L 93.785156 127.59375 C 93.632812 127.59375 93.5 127.503906 93.394531 127.328125 C 93.234375 127.0625 93.109375 126.890625 93.023438 126.816406 C 92.804688 126.636719 92.484375 126.546875 92.0625 126.546875 C 91.351562 126.546875 90.796875 126.882812 90.402344 127.554688 C 90.089844 128.09375 89.917969 128.761719 89.878906 129.550781 C 90.503906 129.046875 91.253906 128.796875 92.125 128.796875 C 93.234375 128.796875 94.117188 129.191406 94.773438 129.980469 C 95.394531 130.722656 95.703125 131.664062 95.703125 132.808594 C 95.703125 134.011719 95.363281 134.960938 94.683594 135.660156 C 94.003906 136.363281 93.074219 136.714844 91.894531 136.714844 C 89.121094 136.714844 87.738281 134.785156 87.738281 130.933594 Z M 89.925781 132.757812 C 89.925781 133.347656 90.085938 133.851562 90.402344 134.261719 C 90.75 134.714844 91.203125 134.945312 91.765625 134.945312 C 92.34375 134.945312 92.800781 134.722656 93.144531 134.277344 C 93.453125 133.871094 93.609375 133.367188 93.609375 132.757812 C 93.609375 132.140625 93.457031 131.632812 93.152344 131.234375 C 92.820312 130.792969 92.359375 130.574219 91.765625 130.574219 C 91.175781 130.574219 90.714844 130.796875 90.386719 131.242188 C 90.082031 131.640625 89.925781 132.148438 89.925781 132.757812 Z M 89.925781 132.757812 "/>
</g>
</svg>

<svg xmlns="http://www.w3.org/2000/svg" width="99" height="140"><path d="M9.298 719.743h215.404c4.93 0 8.92 4.005 8.92 8.938v314.362c0 4.934-3.99 8.938-8.92 8.938H9.298c-4.93 0-8.92-4.004-8.92-8.938V728.681c0-4.933 3.99-8.938 8.92-8.938Zm0 0" style="fill-rule:nonzero;fill:#fff;fill-opacity:1;stroke-width:.756;stroke-linecap:butt;stroke-linejoin:miter;stroke:gray;stroke-opacity:1;stroke-miterlimit:4" transform="matrix(.42308 0 0 .42042 0 -302.435)"/><path d="M23.785 60.836h2.035v7.047h-2.035Zm0 0" style="stroke:none;fill-rule:nonzero;fill:#000;fill-opacity:1"/><path d="M36 57.469a5.95 5.95 0 0 1-2.324 8.105c-2.887 1.598-6.528.563-8.133-2.316a5.95 5.95 0 0 1-.738-2.492c-.223 3.289-3.078 5.77-6.375 5.547-3.293-.223-5.785-3.07-5.559-6.356.223-3.285 3.078-5.766 6.371-5.543a6.063 6.063 0 0 1 2.48.723c-2.824-1.692-3.75-5.352-2.054-8.176a5.99 5.99 0 0 1 8.203-2.059 5.95 5.95 0 0 1 2.067 8.176 6.08 6.08 0 0 1-2.075 2.07c2.89-1.597 6.532-.558 8.137 2.32ZM6.938 23.441h.68v2.348h-.68Zm0 0" style="stroke:none;fill-rule:nonzero;fill:#000;fill-opacity:1"/><path d="M11.012 22.316c.535.961.187 2.172-.774 2.704a2.002 2.002 0 0 1-2.715-.774 1.997 1.997 0 0 1-.246-.828 1.99 1.99 0 0 1-2.12 1.848A1.99 1.99 0 0 1 3.3 23.148a1.99 1.99 0 0 1 2.125-1.847c.289.02.57.101.824.238a1.988 1.988 0 0 1-.684-2.727 1.998 1.998 0 0 1 2.735-.683 1.982 1.982 0 0 1-.004 3.414 2.005 2.005 0 0 1 2.715.773ZM91.379 116.559h.68v-2.348h-.68Zm0 0" style="stroke:none;fill-rule:nonzero;fill:#000;fill-opacity:1"/><path d="M95.453 117.684a1.985 1.985 0 0 0-.773-2.704 2.002 2.002 0 0 0-2.715.774c-.14.254-.227.539-.246.828a1.99 1.99 0 0 0-2.121-1.848 1.99 1.99 0 0 0-1.856 2.118 1.99 1.99 0 0 0 2.125 1.847c.29-.02.57-.101.824-.238a1.988 1.988 0 0 0-.683 2.727 1.998 1.998 0 0 0 2.734.683 1.982 1.982 0 0 0-.004-3.414c.965.531 2.18.184 2.715-.773ZM23.785 107.227h2.035v-7.047h-2.035Zm0 0" style="stroke:none;fill-rule:nonzero;fill:#000;fill-opacity:1"/><path d="M36 110.594a5.95 5.95 0 0 0-2.324-8.106 5.989 5.989 0 0 0-8.133 2.317 5.95 5.95 0 0 0-.738 2.492c-.223-3.29-3.078-5.77-6.375-5.547-3.293.223-5.785 3.07-5.559 6.352.223 3.285 3.078 5.77 6.371 5.546a6.063 6.063 0 0 0 2.48-.722c-2.824 1.691-3.75 5.351-2.054 8.176a5.99 5.99 0 0 0 8.203 2.058 5.95 5.95 0 0 0 2.067-8.176 6.08 6.08 0 0 0-2.075-2.07c2.89 1.598 6.532.559 8.137-2.32ZM23.785 32.773h2.035v7.047h-2.035Zm0 0" style="stroke:none;fill-rule:nonzero;fill:#000;fill-opacity:1"/><path d="M36 29.406a5.95 5.95 0 0 1-2.324 8.106 5.989 5.989 0 0 1-8.133-2.317 5.95 5.95 0 0 1-.738-2.492c-.223 3.29-3.078 5.77-6.375 5.547-3.293-.223-5.785-3.07-5.559-6.355.223-3.286 3.078-5.766 6.371-5.543a6.063 6.063 0 0 1 2.48.722c-2.824-1.691-3.75-5.351-2.054-8.176a5.99 5.99 0 0 1 8.203-2.058 5.95 5.95 0 0 1 2.067 8.176 6.08 6.08 0 0 1-2.075 2.07c2.89-1.598 6.532-.559 8.137 2.32ZM48.48 74.867h2.036v7.047H48.48Zm0 0" style="stroke:none;fill-rule:nonzero;fill:#000;fill-opacity:1"/><path d="M60.695 71.5c1.606 2.875.563 6.508-2.324 8.105-2.887 1.598-6.527.563-8.133-2.316a5.894 5.894 0 0 1-.738-2.492c-.223 3.289-3.078 5.77-6.375 5.547-3.293-.223-5.785-3.07-5.559-6.356.223-3.285 3.075-5.765 6.371-5.543a6.063 6.063 0 0 1 2.481.723c-2.824-1.691-3.75-5.352-2.055-8.176a5.99 5.99 0 0 1 8.203-2.058 5.95 5.95 0 0 1 2.067 8.175 6.08 6.08 0 0 1-2.074 2.07c2.89-1.597 6.53-.558 8.136 2.321ZM73.176 32.773h2.035v7.047h-2.035Zm0 0" style="stroke:none;fill-rule:nonzero;fill:#000;fill-opacity:1"/><path d="M85.39 29.406a5.95 5.95 0 0 1-2.324 8.106 5.989 5.989 0 0 1-8.132-2.317 5.894 5.894 0 0 1-.739-2.492c-.222 3.29-3.078 5.77-6.375 5.547-3.293-.223-5.785-3.07-5.558-6.355.222-3.286 3.074-5.766 6.37-5.543a6.063 6.063 0 0 1 2.481.722c-2.824-1.691-3.75-5.351-2.054-8.176a5.99 5.99 0 0 1 8.203-2.058 5.95 5.95 0 0 1 2.066 8.176 6.08 6.08 0 0 1-2.074 2.07c2.89-1.598 6.531-.559 8.137 2.32ZM73.176 60.836h2.035v7.047h-2.035Zm0 0" style="stroke:none;fill-rule:nonzero;fill:#000;fill-opacity:1"/><path d="M85.39 57.469a5.95 5.95 0 0 1-2.324 8.105c-2.886 1.598-6.527.563-8.132-2.316a5.894 5.894 0 0 1-.739-2.492c-.222 3.289-3.078 5.77-6.375 5.547-3.293-.223-5.785-3.07-5.558-6.356.222-3.285 3.074-5.766 6.37-5.543a6.063 6.063 0 0 1 2.481.723c-2.824-1.692-3.75-5.352-2.054-8.176a5.99 5.99 0 0 1 8.203-2.059 5.95 5.95 0 0 1 2.066 8.176 6.08 6.08 0 0 1-2.074 2.07c2.89-1.597 6.531-.558 8.137 2.32ZM23.785 79.164h2.035v-7.047h-2.035Zm0 0" style="stroke:none;fill-rule:nonzero;fill:#000;fill-opacity:1"/><path d="M36 82.531a5.95 5.95 0 0 0-2.324-8.105c-2.887-1.598-6.528-.563-8.133 2.316a5.95 5.95 0 0 0-.738 2.492c-.223-3.289-3.078-5.77-6.375-5.546-3.293.222-5.785 3.07-5.559 6.355.223 3.285 3.078 5.766 6.371 5.543a6.063 6.063 0 0 0 2.48-.723c-2.824 1.692-3.75 5.352-2.054 8.176a5.99 5.99 0 0 0 8.203 2.059 5.95 5.95 0 0 0 2.067-8.176 6.08 6.08 0 0 0-2.075-2.07c2.89 1.597 6.532.558 8.137-2.32ZM73.176 107.227h2.035v-7.047h-2.035Zm0 0" style="stroke:none;fill-rule:nonzero;fill:#000;fill-opacity:1"/><path d="M85.39 110.594a5.95 5.95 0 0 0-2.324-8.106 5.989 5.989 0 0 0-8.132 2.317 5.894 5.894 0 0 0-.739 2.492c-.222-3.29-3.078-5.77-6.375-5.547-3.293.223-5.785 3.07-5.558 6.352.222 3.285 3.074 5.77 6.37 5.546a6.063 6.063 0 0 0 2.481-.722c-2.824 1.691-3.75 5.351-2.054 8.176a5.99 5.99 0 0 0 8.203 2.058 5.95 5.95 0 0 0 2.066-8.176 6.08 6.08 0 0 0-2.074-2.07c2.89 1.598 6.531.559 8.137-2.32ZM73.176 79.164h2.035v-7.047h-2.035Zm0 0" style="stroke:none;fill-rule:nonzero;fill:#000;fill-opacity:1"/><path d="M85.39 82.531a5.95 5.95 0 0 0-2.324-8.105c-2.886-1.598-6.527-.563-8.132 2.316a5.894 5.894 0 0 0-.739 2.492c-.222-3.289-3.078-5.77-6.375-5.546-3.293.222-5.785 3.07-5.558 6.355.222 3.285 3.074 5.766 6.37 5.543a6.063 6.063 0 0 0 2.481-.723c-2.824 1.692-3.75 5.352-2.054 8.176a5.99 5.99 0 0 0 8.203 2.059 5.95 5.95 0 0 0 2.066-8.176 6.08 6.08 0 0 0-2.074-2.07c2.89 1.597 6.531.558 8.137-2.32ZM11.262 9.066c0 1.696-.297 3.075-.89 4.137-.743 1.328-1.888 1.996-3.434 1.996-.903 0-1.649-.18-2.239-.543-.71-.445-1.066-1.101-1.066-1.965 0-.191.133-.285.394-.285h1.188c.152 0 .285.09.39.266.16.265.286.437.372.512.218.18.539.27.96.27.711 0 1.266-.337 1.66-1.009.313-.539.485-1.207.524-1.996-.625.504-1.375.754-2.246.754-1.11 0-1.992-.394-2.648-1.183-.622-.743-.93-1.684-.93-2.829 0-1.203.34-2.152 1.02-2.851.68-.703 1.609-1.055 2.788-1.055 2.774 0 4.157 1.93 4.157 5.781ZM9.074 7.242c0-.59-.16-1.094-.476-1.504-.348-.453-.801-.683-1.364-.683-.578 0-1.035.222-1.379.668-.308.406-.464.91-.464 1.52 0 .616.152 1.124.457 1.523.332.441.793.66 1.386.66.59 0 1.051-.223 1.38-.668.304-.399.46-.906.46-1.516ZM87.738 130.934c0-1.696.297-3.075.89-4.137.743-1.328 1.888-1.996 3.434-1.996.903 0 1.649.18 2.239.543.71.445 1.066 1.101 1.066 1.965 0 .191-.133.285-.394.285h-1.188c-.152 0-.285-.09-.39-.266-.16-.266-.286-.437-.372-.512-.218-.18-.539-.27-.96-.27-.711 0-1.266.337-1.66 1.009-.313.539-.485 1.207-.524 1.996.625-.504 1.375-.754 2.246-.754 1.11 0 1.992.394 2.648 1.183.622.743.93 1.684.93 2.829 0 1.203-.34 2.152-1.02 2.851-.68.703-1.609 1.055-2.788 1.055-2.774 0-4.157-1.93-4.157-5.781Zm2.188 1.824c0 .59.16 1.094.476 1.504.348.453.801.683 1.364.683.578 0 1.035-.222 1.379-.668.308-.406.464-.91.464-1.52 0-.616-.152-1.124-.457-1.523-.332-.441-.793-.66-1.386-.66-.59 0-1.051.223-1.38.668-.304.399-.46.906-.46 1.516Zm0 0" style="stroke:none;fill-rule:nonzero;fill:#000;fill-opacity:1"/></svg>
